!!!!SEGMENT: pl-gd--ee-1638--007-020_marenzio-luca--il-terzo-libro-de-madrigalia-a-sei-voci-dilagrime.krn
!!!cenid: 15xx:861
!!!COM: Marenzio, Luca
!!!COM-rismID: pe30003955
!!!CDT: ~1553-1599/08/22
!!!CNT: Italian
!!!GTL: Il Terzo Libro de madrigalia a sei voci
!!!OTL: Dilagrime
!!!OMV: 020
!!!PDT: 1585
!!!AGN:
!!!SMS-siglum: PL-GD
!!!SMS-shelfmark: Ee 1638
!!!SMS-variant:
!!!SMS-altvar:
!!!SMS-shelfwork: 007-020 G
!!!NIFC-rismSourceID: 990039250
!!!NIFC-islandoraID: pl-gd:57883
!!!URL-pdf-islandora: https://repozytorium.nifc.pl/islandora/object/pl-gd%3A57883/datastream/PDF/view
!!!URL-scan: https://polish.musicsources.pl/pl/lokalizacje/galeria/klocki-introligatorskie/655 @EN{Scan on Polish Music Herritage in Open Access Website} @PL{Skany w portalu Dziedzictwo Muzyki Polskiej w otwartym dostępie}
!!!ONB-nifc: UWAGA: zbiór na stronach: Canto: s. 694-704, Alto: s. 542-552, Tenore: s. 390-400, Basso: s. 237-248, Quinto: s. 85-96, Sesto: s. 3-14. Uwaga: utwory podzielone wg tytułów w spisach treści dostępnych na końcu każdej księgi głosowej.
!!!AIN: 1 alto 1 bass  1 soprn 1 tenor 2 vox
!!!key: d
**kern	**text	**kern	**text	**kern	**text	**kern	**text	**kern	**text	**kern	**text
*part6	*part6	*part5	*part5	*part4	*part4	*part3	*part3	*part2	*part2	*part1	*part1
*staff6	*staff6	*staff5	*staff5	*staff4	*staff4	*staff3	*staff3	*staff2	*staff2	*staff1	*staff1
*I"SESTO	*	*I"QVINTO	*	*I"BASSO	*	*I"TENORE	*	*I"ALTO	*	*I"CANTO	*
*I'V II	*	*I'V I	*	*I'B	*	*I'T	*	*I'A	*	*I'S	*
*ICvox	*	*ICvox	*	*ICvox	*	*ICvox	*	*ICvox	*	*ICvox	*
*Ivox	*	*Ivox	*	*Ibass 	*	*Itenor	*	*Ialto	*	*Isoprn	*
*clefC3	*	*clefG2	*	*clefF3	*	*clefC3	*	*clefC2	*	*clefG2	*
*k[b-]	*	*k[b-]	*	*k[b-]	*	*k[b-]	*	*k[b-]	*	*k[b-]	*
*d:	*	*d:	*	*d:	*	*d:	*	*d:	*	*d:	*
*M2/1	*	*M2/1	*	*M2/1	*	*M2/1	*	*M2/1	*	*M2/1	*
*met(C)	*	*met(C)	*	*met(C)	*	*met(C)	*	*met(C)	*	*met(C)	*
=1-	=1-	=1-	=1-	=1-	=1-	=1-	=1-	=1-	=1-	=1-	=1-
!	!	!	!	!LO:TX:t=P:problem:podwójnie zapisany znak przykluczowy, kolejno: BB- B-	!	!LO:TX:b:i:t=DI lagrime	!	!LO:TX:t=P:problem:podwójnie zapisany znak przykluczowy, kolejno: B- b-	!	!LO:TX:b:i:t=DI lagrime	!
!LO:TX:a:i:t=Seconda parte	!	!LO:TX:a:i:t=Seconda parte	!	!LO:TX:a:i:t=Seconda parte	!	!LO:TX:a:i:t=Seconda parte	!	!LO:TX:a:i:t=Seconda parte	!	!LO:TX:a:i:t=Seconda parte	!
00r	.	1r	.	1r	.	00r	.	0g	Di	00r	.
.	.	0dd	DI	0G	DI	.	.	.	.	.	.
=2-	=2-	=2-	=2-	=2-	=2-	=2-	=2-	=2-	=2-	=2-	=2-
.	.	.	.	.	.	.	.	1.b-	la-	.	.
.	.	1.ff	la-	1.d	la-	.	.	.	.	.	.
.	.	.	.	.	.	.	.	2a\	-gri-	.	.
=3-	=3-	=3-	=3-	=3-	=3-	=3-	=3-	=3-	=3-	=3-	=3-
00r	.	.	.	.	.	00r	.	1a	-me	0r	.
.	.	2ee\	-gri-	2c#X\	-gri-	.	.	.	.	.	.
.	.	1ee	-me	1c#	-me	.	.	4r	.	.	.
.	.	.	.	.	.	.	.	2a\	In-	.	.
.	.	.	.	.	.	.	.	4e/	-di	.	.
=4-	=4-	=4-	=4-	=4-	=4-	=4-	=4-	=4-	=4-	=4-	=4-
.	.	4r	.	4r	.	.	.	4.f\	ſpar-	1r	.
.	.	2ff\	in-	2d\	In-	.	.	.	.	.	.
.	.	.	.	.	.	.	.	8g\	-ge un	.	.
.	.	.	.	.	.	.	.	4a\	ruſ-	.	.
.	.	4cc\	-di	4A\	-di	.	.	4a\	-cel-	.	.
.	.	4.dd\	ſparg'	4.B-\	ſpar-	.	.	2g\	-let-	4r	.
.	.	.	.	.	.	.	.	.	.	2dd\	In-
.	.	8ee\	un	8cny\	-ge'un	.	.	.	.	.	.
.	.	4ff\	ruſ-	4d\	ruſ-	.	.	4.f\	-to	.	.
.	.	2dd\	-cel-	4d\	-cel-	.	.	.	.	4a/	-di
.	.	.	.	.	.	.	.	8e/	.	.	.
=5-	=5-	=5-	=5-	=5-	=5-	=5-	=5-	=5-	=5-	=5-	=5-
1r	.	.	.	2G\	-let-	4r	.	4d/	.	4.b-/	ſpar-
.	.	2gg\	-let-	.	.	2d\	In-	4b-\	un	.	.
.	.	.	.	.	.	.	.	.	.	8cc\	-ge un
*	*	*	*	*	*	*	*	*custos:a	*	*	*
!	!	!	!	!	!	!	!	!LO:LB:g=original	!	!	!
.	.	.	.	2D/	-to	.	.	4.a\	ru-	4dd\	ruſ-
.	.	4ff\	-to	.	.	4A/	-di	.	.	4dd\	-cel-
.	.	.	.	.	.	.	.	8g\	.	.	.
0d	DI	1r	.	1r	.	4.B-/	ſpar-	8f\	.	1dd	-let-
.	.	.	.	.	.	.	.	8e\	.	.	.
.	.	.	.	.	.	.	.	8d/	.	.	.
.	.	.	.	.	.	8c/	-ge'un	8e\	.	.	.
.	.	.	.	.	.	4d\	ru-	4f\	.	.	.
.	.	.	.	.	.	4B-/	-ſcel-	4g\	-ſce-	.	.
=6-	=6-	=6-	=6-	=6-	=6-	=6-	=6-	=6-	=6-	=6-	=6-
.	.	0dd	Di	0D	Di	2A/	-let-	1a	-let-	1ff	-to
.	.	.	.	.	.	2A/	-to	.	.	.	.
1.f	la-	.	.	.	.	1r	.	1a	-to	2r	.
.	.	.	.	.	.	.	.	.	.	1a/	Di
*	*	*	*	*custos:A	*	*	*	*	*	*	*
!	!	!	!	!LO:LB:g=original	!	!	!	!	!	!	!
=7-	=7-	=7-	=7-	=7-	=7-	=7-	=7-	=7-	=7-	=7-	=7-
.	.	2r	.	1.A	la-	00r	.	00r	.	.	.
2e\	-gri-	1ee	la-	.	.	.	.	.	.	1cc	la-
1e	-me	.	.	.	.	.	.	.	.	.	.
*	*	*custos:ee	*	*	*	*	*	*	*	*	*
!	!	!LO:LB:g=original	!	!	!	!	!	!	!	!LO:N:acc=#	!
.	.	2ee\	-gri-	2G#X\	-gri-	.	.	.	.	2bn/	-gri-
=8-	=8-	=8-	=8-	=8-	=8-	=8-	=8-	=8-	=8-	=8-	=8-
!	!	!	!	!	!	!	!	!	!	!LO:N:acc=#y	!
4r	.	0ee	-me	1G#yX	-me	.	.	.	.	1bny	-me
2e\	in-	.	.	.	.	.	.	.	.	.	.
4e\	-di	.	.	.	.	.	.	.	.	.	.
*	*	*	*	*	*	*	*	*	*	*custos:cc	*
!	!	!	!	!	!	!	!	!	!	!LO:LB:g=original	!
4.c\	ſpar-	.	.	4r	.	.	.	.	.	4r	.
.	.	.	.	2A\	in-	.	.	.	.	2cc\	in-
8d\	-g'un	.	.	.	.	.	.	.	.	.	.
4e\	ruſ-	.	.	.	.	.	.	.	.	.	.
4e\	-cel-	.	.	4E/	-di	.	.	.	.	4g/	-di
=9-	=9-	=9-	=9-	=9-	=9-	=9-	=9-	=9-	=9-	=9-	=9-
2d\	-let-	4r	.	4.F/	ſpar-	1r	.	4r	.	4.a/	ſpar-
.	.	2ff\	in-	.	.	.	.	2a\	in-	.	.
.	.	.	.	8Gny\	-ge'un	.	.	.	.	8b-y/	-ge' un
2c/	-to	.	.	4A\	ruſ-	.	.	.	.	4cc\	ruſ-
.	.	4cc\	-di	4A\	-cel-	.	.	4e/	-di	4a/	-cel-
1r	.	4.dd\	ſpar-	2G\	-let-	4r	.	4.g\	ſpar-	2b-/	-let-
.	.	.	.	.	.	2d\	in-	.	.	.	.
.	.	8ee\	-ge'un	.	.	.	.	8g\	-ge'un	.	.
.	.	1ff\	ruſ-	2D/	-to	.	.	1f\	ruſ-	2a/	-to
.	.	.	.	.	.	4A/	-di	.	.	.	.
*	*	*	*	*	*	*custos:B-	*	*	*	*	*
!	!	!	!	!	!	!LO:LB:g=original	!	!	!	!	!
=10-	=10-	=10-	=10-	=10-	=10-	=10-	=10-	=10-	=10-	=10-	=10-
00r	.	.	.	00r	.	4.B-/	ſpar-	.	.	4r	.
.	.	.	.	.	.	.	.	.	.	4dd\	un
.	.	.	.	.	.	8c/	-ge'un	.	.	.	.
.	.	2f/	-cel-	.	.	4d\	ru-	4f\	-cel-	4dd\	ruſ-
.	.	.	.	.	.	4d\	-ſcel-	2b-\	-let	4ff\	-cel-
.	.	2cc\	-let-	.	.	2c/	-let-	.	.	2ee-X\	-let-
.	.	.	.	.	.	.	.	4a\	.	.	.
.	.	4f/	-to	.	.	2B-/	-to	2b-\	to	2dd\	-to
.	.	2ff\	Per	.	.	.	.	.	.	.	.
=11-	=11-	=11-	=11-	=11-	=11-	=11-	=11-	=11-	=11-	=11-	=11-
.	.	.	.	.	.	4f\	Per	4a\	Per-	4cc\	Per
.	.	4dd\	le	.	.	4g\	le	4g\	-le	4b-\	le
*	*	*	*	*	*	*	*	*custos:g	*	*	*
!	!	!	!	!	!	!	!	!LO:LB:g=original	!	!	!
.	.	2.ee-X\	pa-	.	.	2.e-X\	pa-	2.g\	pa-	2.b-/	pa-
.	.	4ee-\	-li-	.	.	4e-\	-li-	4g\	-li-	4b-/	-li-
.	.	2ee-\	-de	.	.	2c/	-de	2g\	-de	2cc\	-de
=12-	=12-	=12-	=12-	=12-	=12-	=12-	=12-	=12-	=12-	=12-	=12-
1r	.	1dd	guan-	1r	.	2d\	guan-	2f#X\	guan-	2a/	guan-
.	.	.	.	.	.	2d\	-c'et	2f#\	-cie	2a/	-c'et
*	*	*	*	*	*	*	*	*	*	*custos:b	*
!	!	!	!	!	!	!	!	!	!	!LO:LB:g=original	!
4r	.	2dd\	-cie	4r	.	4g\	fat-	1r	.	4b-/	fat-
4A/	[et]	.	.	4D/	et	4f\	-ta	.	.	4a/	-ta
*custos:B-	*	*	*	*	*	*	*	*	*	*	*
!LO:LB:g=original	!	!	!	!	!	!	!	!	!	!	!
4B-/	fat-	2r	.	4G\	fat-	8e-X\	ſtan-	.	.	1.g/	ſton-
.	.	.	.	.	.	8d\	.	.	.	.	.
4A/	-ta	.	.	4F/	-ta	2d\	.	.	.	.	.
=13-	=13-	=13-	=13-	=13-	=13-	=13-	=13-	=13-	=13-	=13-	=13-
1G	ſtan-	1r	.	1E-X	ſtan-	.	.	0r	.	.	.
.	.	.	.	.	.	8c/	.	.	.	.	.
.	.	.	.	.	.	8B-/	.	.	.	.	.
*	*	*	*	*	*	*custos:c	*	*	*	*	*
!	!	!	!	!	!	!LO:LB:g=original	!	!	!	!	!
.	.	.	.	.	.	2c\	.	.	.	.	.
2A/	-ca	2r	.	2D/	-ca	1d	-ca	.	.	2f/	-ca
2f\	Tut-	1ff\	Tut-	1d\	Tut.	.	.	.	.	1a/	Tut-
*	*	*	*	*custos:c	*	*	*	*	*	*	*
!	!	!	!	!LO:LB:g=original	!	!	!	!	!	!	!
=14-	=14-	=14-	=14-	=14-	=14-	=14-	=14-	=14-	=14-	=14-	=14-
2d\	-te	.	.	.	.	0r	.	1r	.	.	.
2e\	ſi	8eeny\	-ta	8c\	ta	.	.	.	.	2cc\	-ta
.	.	8dd\	ſi	8B-\	ſi	.	.	.	.	.	.
.	.	8cc\	laſ-	8A\	la-	.	.	.	.	.	.
.	.	8b-\	-ci' an-	8G\	-ſci'an-	.	.	.	.	.	.
2f\	la-	8a/	-dar	8F/	-dar	.	.	2r	.	1r	.
.	.	8g/	ſopr'	8Eny/	ſopr'	.	.	.	.	.	.
.	.	8f/	il	8D/	il	.	.	.	.	.	.
.	.	8e/	mio	8C/	mio	.	.	.	.	.	.
2f\	-ſci'an-	2d/	pet-	2BB-/	pet-	.	.	4r	.	.	.
.	.	.	.	.	.	.	.	4fny\	et	.	.
=15-	=15-	=15-	=15-	=15-	=15-	=15-	=15-	=15-	=15-	=15-	=15-
4f\	-dar	2d/	-to	2BB-/	-to	4r	.	4.b-\	fat-	4r	.
4f\	[et]	.	.	.	.	4B-/	[et]	.	.	4dd\	[et]
.	.	.	.	.	.	.	.	8a\	-ta	.	.
4g\	fat-	2r	.	2r	.	4e-X\	fat-	8g\	ſtan-	4b-/	fat-
.	.	.	.	.	.	.	.	8a\	.	.	.
4f\	-ta	.	.	.	.	4d\	-ta	2b-\	.	4b-/	-ta
1e-X	ſtan-	1r	.	1r	.	1c	ſtan-	.	.	1cc	ſtan-
.	.	.	.	.	.	.	.	8a\	.	.	.
.	.	.	.	.	.	.	.	8g\	.	.	.
.	.	.	.	.	.	.	.	2a\	.	.	.
=16-	=16-	=16-	=16-	=16-	=16-	=16-	=16-	=16-	=16-	=16-	=16-
2d\	-ca	2r	.	2r	.	1B-	-ca	1b-	-ca	1f	-ca
*	*	*	*ij	*	*	*	*	*	*	*	*
2f\	Tut-	1ff	Tut-	1d	Tut-	.	.	.	.	.	.
2d\	-ta	.	.	.	.	1r	.	1r	.	2a/	Tut-
2eny\	ſi	8ee\	-ta	8c\	-ta	.	.	.	.	2cc\	-ta
.	.	8dd\	ſi	8B-\	ſi	.	.	.	.	.	.
.	.	8cc\	laſ-	8A\	la-	.	.	.	.	.	.
.	.	8b-\	-ci' an-	8G\	-ſci'an-	.	.	.	.	.	.
=17-	=17-	=17-	=17-	=17-	=17-	=17-	=17-	=17-	=17-	=17-	=17-
2f\	la-	8a/	-dar	8F/	-dar	2r	.	2r	.	2r	.
.	.	8g/	ſopr'	8E/	ſopr'	.	.	.	.	.	.
.	.	8f/	il	8D/	il	.	.	.	.	.	.
.	.	8e/	mio	8C/	mio	.	.	.	.	.	.
*custos:f	*	*	*	*custos:BB-	*	*	*	*	*	*	*
!LO:LB:g=original	!	!	!	!LO:LB:g=original	!	!	!	!	!	!	!
2f\	-ſc'an-	2d/	pet-	2BB-/	pet-	4r	.	1dd	Tut-	1ff	Tut-
.	.	.	.	.	.	4d\	ſopr'	.	.	.	.
2f\	-dar	2d/	-to	2BB-/	-to	2B-/	il	.	.	.	.
2r	.	2r	.	2r	.	2c/	mio	8cc\	-ta	8eeny\	-ta
.	.	.	.	.	.	.	.	8b-\	ſi-	8dd\	ſi
.	.	.	.	.	.	.	.	8a\	-laſ-	8cc\	la-
.	.	.	.	.	.	.	.	8g\	-cta'an	8b-\	-ſci'an
*	*	*	*Xij	*	*	*	*	*custos:f	*	*custos:a	*
!	!	!	!	!	!	!	!	!LO:LB:g=original	!	!LO:LB:g=original	!
=18-	=18-	=18-	=18-	=18-	=18-	=18-	=18-	=18-	=18-	=18-	=18-
1r	.	1r	.	1r	.	4.d\	pet-	8f\	dar	8a/	dar
.	.	.	.	.	.	.	.	8e\	ſopr'	8g/	ſopr'
.	.	.	.	.	.	.	.	8d/	il	8f/	il
.	.	.	.	.	.	8eny\	.	8c/	mio	8e/	mio
.	.	.	.	.	.	2f\	.	2B-/	pet-	2d/	pet-
4r	.	4r	.	4r	.	4f\	-to	4B-/	-to	4d/	-to
4B-/	Co-	4b-/	Co-	4BB-/	Co-	4d\	Co-	4f\	Co-	4dd\	Co-
*	*	*custos:b-	*	*	*	*	*	*	*	*	*
!	!	!LO:LB:g=original	!	!	!	!	!	!	!	!	!
4F/	-me	4b-/	-me	4BB-/	-me	4B-/	-me	4f\	-me	4dd\	-me
4.A/	d'o-	4.a/	d'o-	4.F/	d'o-	4.c/	d'o-	4.f\	d'o-	4.cc\	d'o-
=19-	=19-	=19-	=19-	=19-	=19-	=19-	=19-	=19-	=19-	=19-	=19-
8A/	-gni	8ff\	-gni	8F/	-gni	8c/	-gni	8a\	-gni	8cc\	-gni
*	*	*	*	*	*	*custos:G	*	*	*	*	*
!	!	!	!	!	!	!LO:LB:g=original	!	!	!	!	!
4B-/	vi-	4dd\	vi-	4G\	vi-	4G/	vi-	4g\	vi-	4b-/	vi-
2d\	-tal	2dd\	-tal	2D/	-tal	4A/	-tal	2f#X\	-tal	2a/	-tal
.	.	.	.	.	.	4.d\	ſpi-	.	.	.	.
!	!	!	!	!	!	!	!	!	!	!LO:N:acc=#	!
2r	.	4.dd\	ſpi-	4.G\	ſpi-	.	.	4.g\	ſpi-	4.bn/	ſpi-
.	.	.	.	.	.	8d\	-ri-	.	.	.	.
.	.	.	.	.	.	4G/	-to	.	.	.	.
.	.	8dd\	-ri-	8G\	-ri-	.	.	8g\	-ri-	8b/	-ri-
4r	.	2ee-X\	-to	2C/	-to	2c/	man-	1g\	-to	2cc\	-to
4.G/	ſpi-	.	.	.	.	.	.	.	.	.	.
=20-	=20-	=20-	=20-	=20-	=20-	=20-	=20-	=20-	=20-	=20-	=20-
.	.	1r	.	2E-X/	man-	2B-/	-ca	.	.	2g/	man-
8G/	-ri-	.	.	.	.	.	.	.	.	.	.
4G/	-to	.	.	.	.	.	.	.	.	.	.
2d\	man-	.	.	2D/	-ca	2r	.	2f#X\	man-	2a/	-ca
2c/	-ca	2ee-X\	man-	1r	.	1r	.	1g	-ca	2r	.
2r	.	2dd\	-ca	.	.	.	.	.	.	2b-y/	man-
=21-	=21-	=21-	=21-	=21-	=21-	=21-	=21-	=21-	=21-	=21-	=21-
2r	.	2r	.	2r	.	2f\	man-	2r	.	2a/	-ca
*	*	*	*	*	*	*	*	*	*	*custos:ee	*
!	!	!	!	!	!	!	!	!	!	!LO:LB:g=original	!
4r	.	4r	.	4r	.	2e\	-ca	4r	.	4r	.
4c/	Et	4cc\	Et	4C/	Et	.	.	4g\	E	4ee\	[et]
2e\	ſtat'	2cc\	ſtat'	2C/	ſtat'	2r	.	2g\	ſtat'	2ee\	ſtat'
2g\	al	2cc\	al-	2C/	al	4r	.	2e/	al	2ee\	al
.	.	.	.	.	.	4c/	[et]	.	.	.	.
*custos:f	*	*	*	*custos:F	*	*	*	*custos:a	*	*	*
!LO:LB:g=original	!	!	!	!LO:LB:g=original	!	!	!	!LO:LB:g=original	!	!	!
=22-	=22-	=22-	=22-	=22-	=22-	=22-	=22-	=22-	=22-	=22-	=22-
0f	quan-	0cc	-quan-	0F	quan-	2c/	ſtat'	0a	quan-	0ff	quan-
.	.	.	.	.	.	2c/	al	.	.	.	.
.	.	.	.	.	.	1A	quan-	.	.	.	.
=23-	=23-	=23-	=23-	=23-	=23-	=23-	=23-	=23-	=23-	=23-	=23-
1d	-to	1dd	-to	1BB-	-to	1B-	-to	1fny	-to	1ff	-to
00r	.	4.a/	mi	4.F\	mi	4.c/	mi	4r	.	00r	.
.	.	.	.	.	.	.	.	4f\	mi-	.	.
.	.	8a/	ra-	8F\	ra-	8c/	ra-	.	.	.	.
*	*	*custos:b	*	*	*	*	*	*	*	*	*
!	!	!LO:LB:g=original	!	!	!	!	!	!	!	!	!
!	!	!LO:N:acc=#	!	!	!	!	!	!	!	!	!
.	.	4.bn/	-brac-	4.G\	-brac-	4.g\	-brac-	4d/	-ra-	.	.
.	.	.	.	.	.	.	.	4.e/	-brac-	.	.
.	.	8b/	-cia	8G\	-cia	8g\	-cia	.	.	.	.
*	*	*	*	*	*	*custos:c	*	*	*	*	*
!	!	!	!	!	!	!LO:LB:g=original	!	!	!	!	!
=24-	=24-	=24-	=24-	=24-	=24-	=24-	=24-	=24-	=24-	=24-	=24-
.	.	4.cc\	ſtret-	4.A\	ſtret-	4.c/	ſtret-	.	.	.	.
.	.	.	.	.	.	.	.	8e/	-cia	.	.
.	.	.	.	.	.	.	.	4.f\	ſtret-	.	.
.	.	8cc\	-to	8A\	-to	8c/	-to	.	.	.	.
.	.	4.dd\	mi	4.B-\	mi	4f\	mi	.	.	.	.
.	.	.	.	.	.	.	.	8f\	-to	.	.
.	.	.	.	.	.	4d\	ra-	4.g\	mi	.	.
.	.	8dd\	ra-	8B-\	ra-	.	.	.	.	.	.
.	.	4.eeny\	-brac-	4.c\	-brac-	4g\	-brac-	.	.	.	.
.	.	.	.	.	.	.	.	8g\	ra-	.	.
.	.	.	.	.	.	4e\	-cia	4.a\	-brac-	.	.
.	.	8ee\	-cia	8c\	-cia	.	.	.	.	.	.
.	.	2ff#X\	ſtret-	2d\	ſtret-	2d\	ſtret-	.	.	.	.
.	.	.	.	.	.	.	.	8b-\	-cia	.	.
.	.	.	.	.	.	.	.	4a\	ſtret-	.	.
=25-	=25-	=25-	=25-	=25-	=25-	=25-	=25-	=25-	=25-	=25-	=25-
.	.	1gg	-to	1G	-to	1d	-to	1b-	-to	.	.
1r	.	3.ee\	Poi	3.A\	Poi	1r	.	1r	.	3.cc#X\	Poi
.	.	6ee\	che	6G\	che	.	.	.	.	6b-\	che
.	.	3ee\	la	3A\	la	.	.	.	.	3cc#\	la
=26-	=26-	=26-	=26-	=26-	=26-	=26-	=26-	=26-	=26-	=26-	=26-
3.d\	Poi	2aa\	le-	2D/	le-	3.f#X\	Poi	3.a\	Poi	2dd\	le-
6c/	che	2dd\	-na	2D/	-na	6e\	che	6a\	che	2a/	-na
3d\	la-	.	.	.	.	3f#X\	la	3a\	la	.	.
*	*	*	*	*custos:G	*	*	*	*	*	*	*
!	!	!	!	!LO:LB:g=original	!	!	!	!LO:N:acc=#	!	!	!
2G/	-le-	4r	.	4r	.	2g\	le-	2bn\	le-	4r	.
*	*	*	*ij	*	*ij	*	*	*	*	*	*ij
.	.	4.dd\	che	4.G\	Poi	.	.	.	.	4.g/	Poi
2d\	-na	.	.	.	.	2G/	-na	2b\	-na	.	.
.	.	8dd\	la	8F/	che	.	.	.	.	8a/	che
.	.	4dd\	le-	4G\	la	.	.	.	.	4g/	la
*	*ij	*custos:ee	*	*	*	*	*ij	*custos:cc	*ij	*	*
!	!	!LO:LB:g=original	!	!	!	!	!	!LO:LB:g=original	!	!	!
=27-	=27-	=27-	=27-	=27-	=27-	=27-	=27-	=27-	=27-	=27-	=27-
4r	.	2ee\	-na	2C/	le-	4r	.	4r	.	1g	le-
4.c/	Po-	.	.	.	.	4.e\	Poi	4.cc\	Poi	.	.
.	.	2gg\	.	2C/	-na	.	.	.	.	.	.
8B-/	-che	.	.	.	.	8d\	che	8dd\	che	.	.
4c/	la	.	.	.	.	4e\	la	4cc\	la	.	.
2F/	le-	4r	.	4r	.	1f#yX	le-	2cc\	le-	1a	-na
*	*	*	*Xij	*	*Xij	*	*	*	*	*	*
.	.	4ff\	[et]	4F/	[et]	.	.	.	.	.	.
2c/	-na	4cc\	la	4F/	la	.	.	2cc\	-na	.	.
.	.	4.ff\	vo-	4.F/	vo-	.	.	.	.	.	.
*	*Xij	*	*	*	*	*	*	*	*Xij	*	*Xij
=28-	=28-	=28-	=28-	=28-	=28-	=28-	=28-	=28-	=28-	=28-	=28-
4r	.	.	.	.	.	2f#yX\	-na	2r	.	1r	.
.	.	8ee\	-ce	8G\	-ce	.	.	.	.	.	.
4f\	[et]	4cc\	rin-	4A\	rin-	.	.	.	.	.	.
*	*	*	*	*	*	*custos:d	*	*	*	*	*
!	!	!	!	!	!	!LO:LB:g=original	!	!	!	!	!
4f\	la	2dd\	-fran-	2B-\	-fran-	4r	.	2r	.	.	.
*	*	*	*	*	*	*	*Xij	*	*	*	*
4.f\	vo-	.	.	.	.	4d\	[et]	.	.	.	.
.	.	1cc	-ca	1F	-ca	4f#\	la	4r	.	4r	.
8g\	-ce	.	.	.	.	.	.	.	.	.	.
4a\	rin-	.	.	.	.	4.f#\	vo-	4c/	[et]	4ff\	[et]
1a\	-fran-	.	.	.	.	.	.	4f\	la	4ccny\	la
.	.	.	.	.	.	8g\	-ce	.	.	.	.
*	*	*	*	*	*	*	*	*	*	*custos:ff	*
!	!	!	!	!	!	!	!	!	!	!LO:LB:g=original	!
.	.	.	.	.	.	4a\	rin-	4.f\	ve-	4.ff\	vo-
*custos:f	*	*	*	*	*	*	*	*	*	*	*
!LO:LB:g=original	!	!	!	!	!	!	!	!	!	!	!
=29-	=29-	=29-	=29-	=29-	=29-	=29-	=29-	=29-	=29-	=29-	=29-
.	.	2r	.	1r	.	2fny\	-fran-	.	.	.	.
.	.	.	.	.	.	.	.	8g\	-ce	8ee\	-ce
.	.	.	.	.	.	.	.	4a\	rin-	4cc\	rin-
2f\	-ca	4r	.	.	.	2B-/	-ca	2b-y\	-fran-	2dd\	-fran-
.	.	4f/	dal-	.	.	.	.	.	.	.	.
2r	.	2a/	-cor	4r	.	4r	.	2f\	-ca	4cc\	-ca
.	.	.	.	4F/	dal-	4f\	Dal-	.	.	4a/	Dal
4r	.	4r	.	2B-\	-cor	2d\	-cor	4r	.	2dd\	cor
*	*	*	*ij	*	*	*	*	*	*	*	*
4d\	Dal-	4dd\	dal-	.	.	.	.	4f\	Dal-	.	.
=30-	=30-	=30-	=30-	=30-	=30-	=30-	=30-	=30-	=30-	=30-	=30-
2B-/	-cor	2ff\	-cor	4r	.	4r	.	2d/	-cor	4r	.
*	*	*	*	*	*ij	*	*ij	*	*	*	*
.	.	.	.	4BB-/	dal-	4f\	Dal-	.	.	4dd\	Dal
4r	.	4r	.	2B-\	-cor	2d\	-cor	4r	.	2ff\	cor
*	*ij	*	*	*	*Xij	*	*Xij	*	*ij	*	*
4d\	Dal-	4dd\	dal-	.	.	.	.	4f\	Dal-	.	.
2B-/	-cor	2ff\	-cor	4r	.	4r	.	2d/	-cor	4r	.
.	.	.	.	4BB-/	Dal-	4f\	Dal-	.	.	4dd\	cor
*	*Xij	*	*Xij	*custos:B-	*	*	*	*	*	*	*
!	!	!	!	!LO:LB:g=original	!	!	!	!	!	!	!
2r	.	4r	.	2.B-\	-cor	2d\	-cor	4r	.	2.ff\	tra-
*	*	*	*	*	*	*	*	*	*Xij	*	*
.	.	4b-y/	Dal-	.	.	.	.	4f\	Dal-	.	.
=31-	=31-	=31-	=31-	=31-	=31-	=31-	=31-	=31-	=31-	=31-	=31-
1r	.	4dd\	-cor	.	.	1r	.	4b-\	-cor	.	.
.	.	4cc\	tra-	4c\	tra-	.	.	4g\	tra-	4ee\	-hẽ(n)-
*	*	*	*	*	*	*	*	*custos:g	*	*	*
!	!	!	!	!	!	!	!	!LO:LB:g=original	!	!	!
.	.	4b-/	-hen-	4G\	-hen-	.	.	4g\	.	4dd\	-do
.	.	4a/	-do	4A\	-do	.	.	4e/	-ben-	4cc\	ſi
*	*	*custos:b	*	*	*	*	*	*	*	*	*
!	!	!LO:LB:g=original	!	!	!	!	!	!	!	!	!
!	!	!LO:N:acc=#	!	!	!	!	!	!	!	!	!
0r	.	1bn	ſi	1G	ſi	00r	.	1g	-do	1dd	dol-
=32-	=32-	=32-	=32-	=32-	=32-	=32-	=32-	=32-	=32-	=32-	=32-
.	.	2cc\	dol-	2F/	dol-	.	.	2c/	ſi	2a/	-ci
.	.	4dd\	-ci	4F#X/	-ci	.	.	4A/	dol-	4a/	pa-
.	.	4bny/	pa-	4G\	pa-	.	.	2d/	-ci	4g/	-ro-
1r	.	1a	-ro'-	1A	-ro-	.	.	.	.	1e	-le
.	.	.	.	.	.	.	.	8c#X/	pa-	.	.
!	!	!	!	!	!	!	!	!LO:N:acc=#	!	!	!
.	.	.	.	.	.	.	.	8Bn/	-ro-	.	.
.	.	.	.	.	.	.	.	2c#X/	.	.	.
=33-	=33-	=33-	=33-	=33-	=33-	=33-	=33-	=33-	=33-	=33-	=33-
2r	.	0a	-e	0.D	-le	.	.	4.d/	-le	4.f/	.
.	.	.	.	.	.	.	.	8e\	.	8g/	.
*	*	*	*	*	*	*	*	*	*	*custos:a	*
!	!	!	!	!	!	!	!	!	!	!LO:LB:g=original	!
2d\	Che	.	.	.	.	.	.	2f\	.	2a/	.
4.f\	fa-	.	.	.	.	2d\	Che	2r	.	1r	.
8g\	-ria i	.	.	.	.	.	.	.	.	.	.
4a\	mont'	.	.	.	.	4.f\	fa-	2d/	Che	.	.
4a\	an-	.	.	.	.	.	.	.	.	.	.
.	.	.	.	.	.	8g\	-ria i	.	.	.	.
=34-	=34-	=34-	=34-	=34-	=34-	=34-	=34-	=34-	=34-	=34-	=34-
8a\	-dar	2r	.	.	.	4a\	mont	4.f\	-ria	2dd\	Che
8g\	.	.	.	.	.	.	.	.	.	.	.
8f\	.	.	.	.	.	4a\	an	.	.	.	.
8e\	.	.	.	.	.	.	.	8g\	i	.	.
*	*ij	*	*	*	*	*custos:a	*	*	*	*	*
!	!	!	!	!	!	!LO:LB:g=original	!	!	!	!	!
2d\	.	2dd\	Che	.	.	8a\	dar	4a\	mont'	4.ff\	fa-
.	.	.	.	.	.	8g\	.	.	.	.	.
.	.	.	.	.	.	8f\	.	4a\	an-	.	.
.	.	.	.	.	.	8e\	.	.	.	8gg\	-ria i
4r	.	4.ff\	fa-	4r	.	1.d	.	8a\	-dar	4aa\	mont'
.	.	.	.	.	.	.	.	8g\	.	.	.
!x	!	!	!	!	!	!	!	!	!	!	!
4d\	Che	.	.	4D/	Che	.	.	8f\	.	4aa\	an-
.	.	8gg\	-ria i	.	.	.	.	8e\	.	.	.
*custos:f	*	*	*	*	*	*	*ij	*custos:d	*	*	*
!LO:LB:g=original	!	!	!	!	!	!	!	!LO:LB:g=original	!	!	!
4.f\	fa-	4aa\	mont	4.d\	fa-	.	.	2d/	.	8aa\	-dar
.	.	.	.	.	.	.	.	.	.	8gg\	.
.	.	4aa\	an-	.	.	.	.	.	.	8ff\	.
8g\	-ria i	.	.	8e\	-ria	.	.	.	.	8ee\	.
=35-	=35-	=35-	=35-	=35-	=35-	=35-	=35-	=35-	=35-	=35-	=35-
4a\	mont'	8aa\	-dar	4f\	i	.	.	1r	.	2dd\	.
.	.	8gg\	.	.	.	.	.	.	.	.	.
4a\	an-	8ff\	.	4d\	mont	.	.	.	.	.	.
.	.	8ee\	.	.	.	.	.	.	.	.	.
!	!	!LO:TX:t=P:problem:poprawiony zapis	!	!	!	!	!	!	!	!	!
8f\	-dar	1dd	.	8d\	an-	4r	.	.	.	2r	.
8e\	.	.	.	8c\	-dar	.	.	.	.	.	.
8d\	.	.	.	8B-\	.	4G/	Che	.	.	.	.
8c\	.	.	.	8A\	.	.	.	.	.	.	.
*	*	*	*	*custos:G	*	*	*	*	*	*	*
!	!	!	!	!LO:LB:g=original	!	!	!	!	!	!	!
1d	.	.	.	1G	.	4.B-/	fa-	2r	.	4r	.
*	*	*	*ij	*	*	*	*	*	*ij	*	*ij
.	.	.	.	.	.	.	.	.	.	4g/	Che
.	.	.	.	.	.	8c/	-ria	.	.	.	.
.	.	4r	.	.	.	4d\	i	4r	.	4.b-\	fa-
.	.	4g/	Che	.	.	4d\	mont'	4b-\	Che	.	.
.	.	.	.	.	.	.	.	.	.	8cc\	-ria i
=36-	=36-	=36-	=36-	=36-	=36-	=36-	=36-	=36-	=36-	=36-	=36-
4r	.	4.b-y/	fa-	1G	re-	8d\	an	4.g\	fa-	4dd\	mont'
.	.	.	.	.	.	8c/	dar	.	.	.	.
4g\	Che	.	.	.	.	8B-/	.	.	.	4dd\	an-
.	.	8cc\	-ria	.	.	8A/	.	8a\	-ria i	.	.
*	*	*	*	*	*	*	*Xij	*	*	*	*
4.d\	fa-	4dd\	i	.	.	4G/	Che	4b-\	mont'	2gg\	-dar
.	.	4g/	mont'	.	.	4G/	fa-	4b-\	an-	.	.
8e\	-ria i	.	.	.	.	.	.	.	.	.	.
*	*	*custos:cc	*	*	*	*	*	*	*	*	*
!	!	!LO:LB:g=original	!	!	!	!	!	!	!	!	!
4f\	mont'	8cc\	an-	0Fny	-ſtar'	4.A/	-ria i	2a\	-dar	4r	.
.	.	8b-\	-dar	.	.	.	.	.	.	.	.
4F/	an-	8a/	.	.	.	.	.	.	.	4cc\	Che
.	.	8g/	.	.	.	8B-/	mont'	.	.	.	.
2A/	-dar	2f/	.	.	.	4c/	an-	4r	.	4.a/	fa-
*	*Xij	*	*Xij	*	*	*	*	*	*Xij	*	*
.	.	.	.	.	.	4c/	-dar	4f\	Chi	.	.
.	.	.	.	.	.	.	.	.	.	8b-/	-ria i
*	*	*	*	*	*	*	*	*	*	*custos:cc	*
!	!	!	!	!	!	!	!	!	!	!LO:LB:g=original	!
=37-	=37-	=37-	=37-	=37-	=37-	=37-	=37-	=37-	=37-	=37-	=37-
2r	.	4r	.	.	.	8c/	.	4.a\	fa-	4cc\	mont'
.	.	.	.	.	.	8B-/	.	.	.	.	.
.	.	4f/	Che	.	.	8A/	.	.	.	4cc\	an-
.	.	.	.	.	.	8G/	.	8b-\	-ria	.	.
*	*	*	*	*	*	*custos:F	*	*	*	*	*
!	!	!	!	!	!	!LO:LB:g=original	!	!	!	!	!
4r	.	4.a/	fa-	.	.	2F/	re-	4cc\	i	2cc\	-dar
4c\	Che	.	.	.	.	.	.	4a\	mont'	.	.
.	.	8b-/	-ria i	.	.	.	.	.	.	.	.
4.e\	fa-	4cc\	mõ(n)t	0.C	il	1c	-ſta-	8g\	an-	4r	.
.	.	.	.	.	.	.	.	8f\	-dar	.	.
*	*	*	*	*	*	*	*	*	*	*	*Xij
.	.	4g/	i	.	.	.	.	8e/	.	4cc\	Che
8f\	-ria i	.	.	.	.	.	.	8d/	.	.	.
4g\	mont'	4r	.	.	.	.	.	2cny/	.	4.ee\	fa-
4g\	an-	4cc\	Che	.	.	.	.	.	.	.	.
.	.	.	.	.	.	.	.	.	.	8ff\	-ria i
*custos:g	*	*	*	*	*	*	*	*	*	*	*
!LO:LB:g=original	!	!	!	!	!	!	!	!	!	!	!
=38-	=38-	=38-	=38-	=38-	=38-	=38-	=38-	=38-	=38-	=38-	=38-
8g\	-dar	4.ee\	fa-	.	.	1c	-re	1g	re-	4gg\	mont'
8f\	.	.	.	.	.	.	.	.	.	.	.
8e\	.	.	.	.	.	.	.	.	.	4gg\	an-
8d\	.	8ff\	-ria i	.	.	.	.	.	.	.	.
2e\	.	4gg\	mõ(n)t'	.	.	.	.	.	.	8gg\	-dar
.	.	.	.	.	.	.	.	.	.	8ff\	.
.	.	4gg\	an-	.	.	.	.	.	.	8ee\	.
.	.	.	.	.	.	.	.	.	.	8dd\	.
1e	reſ-	8gg\	-dar	.	.	0G	il	1g	-ſtar'	4cc\	reſ-
.	.	8ff\	.	.	.	.	.	.	.	.	.
.	.	8ee\	.	.	.	.	.	.	.	4cc\	-ta-
.	.	8dd\	.	.	.	.	.	.	.	.	.
.	.	4cc\	.	.	.	.	.	.	.	2ee#X\	-re
.	.	4g/	reſ-	.	.	.	.	.	.	.	.
=39-	=39-	=39-	=39-	=39-	=39-	=39-	=39-	=39-	=39-	=39-	=39-
2g\	-tar'	2bn/	-tar'	0G	ſo-	.	.	1g	il	2dd\	il
2e\	il	2cc\	il	.	.	.	.	.	.	2.cc\	ſo-
1d	ſo-	1dd	ſo-	.	.	1g	ſo-	1G	ſo-	.	.
.	.	.	.	.	.	.	.	.	.	8b-/	.
.	.	.	.	.	.	.	.	.	.	8a/	.
!	!	!	!	!	!	!	!	!	!	!LO:N:acc=#	!
.	.	.	.	.	.	.	.	.	.	2bn/	.
=40-	=40-	=40-	=40-	=40-	=40-	=40-	=40-	=40-	=40-	=40-	=40-
00c	-le.	00ee	-le.	00C	-le.	00e	-le.	00g	-le	00cc	-le.
==	==	==	==	==	==	==	==	==	==	==	==
*-	*-	*-	*-	*-	*-	*-	*-	*-	*-	*-	*-
!!!system-decoration: [(s1,s2,s3,s4,s5,s6)]
!!!ENC: Andrzej Gręziak
!!!END: 2022-06-13
!!!ENC: Jan Barakat
!!!END: 2022-07-23
